X: 37440
T: Sliabh Lucan, The
R: polka
M: 2/4
K: Edorian
|:G/F/|EB- B>A|BG E>G|FA- A>B|AG FD|
EB BA|BG Ee/f/|g/f/e ed|BG A:|
|:f|g>a gf|gg/f/ e>f|g/f/e ef|gb b/a/g/f/|
[1 g/a/g/f/ g>f|gf e2|fd c/d/e|fa a:|
[2 bb/g/ a2|a/g/f/e/ fd|eB c/d/e/c/|BG A||

